humanity-icon-theme/Humanity/devices/22/audio-input-microphone.svg

<?xml version="1.0" encoding="UTF-8" standalone="no"?>
<!-- Created with Inkscape (http://www.inkscape.org/) -->

<svg
   xmlns:svg="http://www.w3.org/2000/svg"
   xmlns="http://www.w3.org/2000/svg"
   xmlns:xlink="http://www.w3.org/1999/xlink"
   version="1.0"
   width="22"
   height="22"
   id="svg2">
  <defs
     id="defs4">
    <linearGradient
       id="linearGradient3622">
      <stop
         id="stop3624"
         style="stop-color:#3c3c3c;stop-opacity:1"
         offset="0" />
      <stop
         id="stop3626"
         style="stop-color:#1e1e1e;stop-opacity:1"
         offset="1" />
    </linearGradient>
    <linearGradient
       id="linearGradient3324">
      <stop
         id="stop3326"
         style="stop-color:#ffffff;stop-opacity:1"
         offset="0" />
      <stop
         id="stop3328"
         style="stop-color:#ffffff;stop-opacity:0"
         offset="1" />
    </linearGradient>
    <linearGradient
       x1="17.676191"
       y1="28.647619"
       x2="15.542857"
       y2="26.971428"
       id="linearGradient4429"
       xlink:href="#linearGradient3324"
       gradientUnits="userSpaceOnUse"
       gradientTransform="matrix(0.6435676,0,0,0.6283907,-6.4762577,-0.0994837)" />
    <linearGradient
       id="linearGradient3155">
      <stop
         id="stop3157"
         style="stop-color:#ffffff;stop-opacity:1"
         offset="0" />
      <stop
         id="stop3159"
         style="stop-color:#9b9b9b;stop-opacity:1"
         offset="1" />
    </linearGradient>
    <radialGradient
       cx="37.97171"
       cy="11.217601"
       r="10.024096"
       fx="37.97171"
       fy="11.217601"
       id="radialGradient4432"
       xlink:href="#linearGradient3155"
       gradientUnits="userSpaceOnUse"
       gradientTransform="matrix(0.648712,0.01177571,-0.01168487,0.63341368,-5.9946991,-3.5743904)" />
    <linearGradient
       id="linearGradient3685">
      <stop
         id="stop3687"
         style="stop-color:#ffffff;stop-opacity:0"
         offset="0" />
      <stop
         id="stop3689"
         style="stop-color:#000000;stop-opacity:0.49803922"
         offset="0.77083331" />
      <stop
         id="stop3691"
         style="stop-color:#000000;stop-opacity:1"
         offset="1" />
    </linearGradient>
    <radialGradient
       cx="31.00248"
       cy="20.938292"
       r="0.91428572"
       fx="31.00248"
       fy="20.938292"
       id="radialGradient4596"
       xlink:href="#linearGradient3685"
       gradientUnits="userSpaceOnUse"
       gradientTransform="matrix(10.774119,0.1955768,-0.19715957,10.687624,-309.49945,-225.80877)" />
    <linearGradient
       x1="32.302921"
       y1="18.646013"
       x2="34.589996"
       y2="16.08078"
       id="linearGradient4609"
       xlink:href="#linearGradient3165"
       gradientUnits="userSpaceOnUse"
       gradientTransform="matrix(0.5866613,0.01064934,-0.01056719,0.5728263,-3.5973673,-2.8298683)" />
    <linearGradient
       x1="34.204147"
       y1="17.333593"
       x2="39.000122"
       y2="23.11928"
       id="linearGradient4606"
       xlink:href="#linearGradient3179"
       gradientUnits="userSpaceOnUse"
       gradientTransform="matrix(0.5866613,0.01064934,-0.01056719,0.5728263,-3.5973673,-2.8298683)"
       spreadMethod="reflect" />
    <linearGradient
       id="linearGradient3449">
      <stop
         id="stop3451"
         style="stop-color:#ffffff;stop-opacity:1"
         offset="0" />
      <stop
         id="stop3453"
         style="stop-color:#9b9b9b;stop-opacity:0"
         offset="1" />
    </linearGradient>
    <radialGradient
       cx="37.97171"
       cy="11.217601"
       r="10.024096"
       fx="37.97171"
       fy="11.217601"
       id="radialGradient4602"
       xlink:href="#linearGradient3449"
       gradientUnits="userSpaceOnUse"
       gradientTransform="matrix(0.648712,0.01177571,-0.01168487,0.63341368,-5.9946991,-3.5743904)" />
    <linearGradient
       id="linearGradient3165">
      <stop
         id="stop3167"
         style="stop-color:#1e1e1e;stop-opacity:1"
         offset="0" />
      <stop
         id="stop3173"
         style="stop-color:#8d8d8d;stop-opacity:1"
         offset="0.26635548" />
      <stop
         id="stop3169"
         style="stop-color:#eeeeee;stop-opacity:1"
         offset="1" />
    </linearGradient>
    <linearGradient
       x1="26.545988"
       y1="25.604839"
       x2="28.415308"
       y2="23.37669"
       id="linearGradient4339"
       xlink:href="#linearGradient3165"
       gradientUnits="userSpaceOnUse"
       gradientTransform="matrix(0.6435676,0,0,0.6283907,-5.1523473,-4.073306)" />
    <linearGradient
       id="linearGradient3179">
      <stop
         id="stop3181"
         style="stop-color:#ffffff;stop-opacity:1"
         offset="0" />
      <stop
         id="stop3183"
         style="stop-color:#ffffff;stop-opacity:0"
         offset="1" />
    </linearGradient>
    <linearGradient
       x1="27.500908"
       y1="24.468029"
       x2="31.416487"
       y2="28.492336"
       id="linearGradient4336"
       xlink:href="#linearGradient3179"
       gradientUnits="userSpaceOnUse"
       gradientTransform="matrix(0.6406125,0,0,0.6305674,-5.1378724,-4.177481)"
       spreadMethod="reflect" />
    <radialGradient
       cx="11.305895"
       cy="8.3027325"
       r="8.7034845"
       fx="11.305895"
       fy="8.3027325"
       id="radialGradient3628"
       xlink:href="#linearGradient3622"
       gradientUnits="userSpaceOnUse"
       gradientTransform="matrix(-0.76617606,1.7163962,-0.70099223,-0.31291346,23.788352,-6.2938596)" />
  </defs>
  <g
     transform="translate(0,-2)"
     id="layer1">
    <path
       d="M 9.5229239,9.0992855 0,20.648583 C 0.5884046,23.856367 3.9226974,24 3.9226974,24 L 15.40697,14.078532 9.5229239,9.0992855 z"
       id="path3320"
       style="fill:url(#radialGradient3628);fill-opacity:1;fill-rule:evenodd;stroke:none" />
    <path
       d="M 11.429497,11.864395 C 0.1011751,24.461535 1.6059058,22.7157 1.6059058,22.7157 c 0,0 -1.129758,-1.020127 -1.1787917,-1.738287 L 9.6068019,9.8590105 c 0,0 0.8448451,1.1232285 1.8226951,2.0053845 z"
       id="path3322"
       style="opacity:0.23999999;fill:url(#linearGradient4429);fill-opacity:1;fill-rule:evenodd;stroke:none" />
    <path
       d="m 21.99903,7.8524419 a 5.8817232,5.7430374 0.69425073 1 1 -11.761498,-0.2135 5.8817232,5.7430374 0.69425073 1 1 11.761498,0.2135 z"
       id="path2383"
       style="fill:url(#radialGradient4432);fill-opacity:1;stroke:none" />
    <path
       d="M 21.748148,7.8350065 A 5.7765246,5.73015 0 1 1 10.197035,7.6253253 5.7765246,5.73015 0 1 1 21.748148,7.8350065 z"
       id="path3681"
       style="opacity:0.19069764;fill:url(#radialGradient4596);fill-opacity:1;stroke:none" />
    <path
       d="m 12.355675,3.2037068 c 0,0 2.328204,3.0817986 8.681586,7.7241922 0.259595,0.189685 -0.491756,0.982402 -0.749352,0.759626 0,0 -3.933782,-1.8824809 -8.741188,-7.5595811 -0.238167,-0.2812526 0.178803,-0.4938302 0.808954,-0.9242371 z"
       id="path3163"
       style="fill:url(#linearGradient4609);fill-opacity:1;fill-rule:evenodd;stroke:none" />
    <path
       d="m 12.355675,3.2037068 c 0,0 2.328204,3.0817986 8.681586,7.7241922 0.259595,0.189685 -0.491756,0.982402 -0.749352,0.759626 0,0 -3.933782,-1.8824809 -8.741188,-7.5595811 -0.238167,-0.2812526 0.178803,-0.4938302 0.808954,-0.9242371 z"
       id="path3177"
       style="opacity:0.67441861;fill:url(#linearGradient4606);fill-opacity:1;fill-rule:evenodd;stroke:none" />
    <path
       d="m 21.99903,7.8524419 a 5.8817232,5.7430374 0.69425073 1 1 -11.761498,-0.2135 5.8817232,5.7430374 0.69425073 1 1 11.761498,0.2135 z"
       id="path2677"
       style="opacity:0.47906979;fill:url(#radialGradient4602);fill-opacity:1;stroke:none" />
    <path
       d="m 15.186528,14.202477 c 0.468232,-0.05715 1.580286,-0.714362 1.580286,-0.714362 -1.609551,-0.800084 -6.496734,-5.6005885 -6.496734,-5.6005885 0,0 -0.8486721,1.0858295 -0.7608781,1.4001475 0,0 2.8093981,3.257485 5.6773261,4.914803 z"
       id="path3302"
       style="fill:url(#linearGradient4339);fill-opacity:1;fill-rule:evenodd;stroke:none" />
    <path
       d="m 15.107611,14.16161 c 0.466082,-0.05735 1.57303,-0.716836 1.57303,-0.716836 -1.602161,-0.802856 -6.466903,-5.61999 -6.466903,-5.61999 0,0 -0.8447751,1.089591 -0.7573841,1.404998 0,0 2.7964981,3.268769 5.6512571,4.931828 z"
       id="path3316"
       style="opacity:0.52558139;fill:url(#linearGradient4336);fill-opacity:1;fill-rule:evenodd;stroke:none" />
  </g>
</svg>

<?xml version="1.0" encoding="UTF-8" standalone="no"?>
<!-- Created with Inkscape (http://www.inkscape.org/) -->
<svg id="svg2" xmlns="http://www.w3.org/2000/svg" height="22" width="22" version="1.0" xmlns:xlink="http://www.w3.org/1999/xlink">
 <defs id="defs4">
  <linearGradient id="linearGradient4429" y2="26.971" gradientUnits="userSpaceOnUse" x2="15.543" gradientTransform="matrix(.64357 0 0 .62839 -6.4763 -.099484)" y1="28.648" x1="17.676">
   <stop id="stop3326" style="stop-color:#fff" offset="0"/>
   <stop id="stop3328" style="stop-color:#fff;stop-opacity:0" offset="1"/>
  </linearGradient>
  <radialGradient id="radialGradient4432" gradientUnits="userSpaceOnUse" cy="11.218" cx="37.972" gradientTransform="matrix(.64871 .011776 -.011685 .63341 -5.9947 -3.5744)" r="10.024">
   <stop id="stop3157" style="stop-color:#fff" offset="0"/>
   <stop id="stop3159" style="stop-color:#9b9b9b" offset="1"/>
  </radialGradient>
  <radialGradient id="radialGradient4596" gradientUnits="userSpaceOnUse" cy="20.938" cx="31.002" gradientTransform="matrix(10.774 .19558 -.19716 10.688 -309.5 -225.81)" r=".91429">
   <stop id="stop3687" style="stop-color:#fff;stop-opacity:0" offset="0"/>
   <stop id="stop3689" style="stop-opacity:.49804" offset=".77083"/>
   <stop id="stop3691" offset="1"/>
  </radialGradient>
  <linearGradient id="linearGradient4609" y2="16.081" xlink:href="#linearGradient3165" gradientUnits="userSpaceOnUse" x2="34.59" gradientTransform="matrix(.58666 .010649 -.010567 .57283 -3.5974 -2.8299)" y1="18.646" x1="32.303"/>
  <linearGradient id="linearGradient4606" y2="23.119" xlink:href="#linearGradient3179" spreadMethod="reflect" gradientUnits="userSpaceOnUse" x2="39" gradientTransform="matrix(.58666 .010649 -.010567 .57283 -3.5974 -2.8299)" y1="17.334" x1="34.204"/>
  <radialGradient id="radialGradient4602" gradientUnits="userSpaceOnUse" cy="11.218" cx="37.972" gradientTransform="matrix(.64871 .011776 -.011685 .63341 -5.9947 -3.5744)" r="10.024">
   <stop id="stop3451" style="stop-color:#fff" offset="0"/>
   <stop id="stop3453" style="stop-color:#9b9b9b;stop-opacity:0" offset="1"/>
  </radialGradient>
  <linearGradient id="linearGradient3165">
   <stop id="stop3167" style="stop-color:#1e1e1e" offset="0"/>
   <stop id="stop3173" style="stop-color:#8d8d8d" offset=".26636"/>
   <stop id="stop3169" style="stop-color:#eee" offset="1"/>
  </linearGradient>
  <linearGradient id="linearGradient4339" y2="23.377" xlink:href="#linearGradient3165" gradientUnits="userSpaceOnUse" x2="28.415" gradientTransform="matrix(.64357 0 0 .62839 -5.1523 -4.0733)" y1="25.605" x1="26.546"/>
  <linearGradient id="linearGradient3179">
   <stop id="stop3181" style="stop-color:#fff" offset="0"/>
   <stop id="stop3183" style="stop-color:#fff;stop-opacity:0" offset="1"/>
  </linearGradient>
  <linearGradient id="linearGradient4336" y2="28.492" xlink:href="#linearGradient3179" spreadMethod="reflect" gradientUnits="userSpaceOnUse" x2="31.416" gradientTransform="matrix(.64061 0 0 .63057 -5.1379 -4.1775)" y1="24.468" x1="27.501"/>
  <radialGradient id="radialGradient3628" gradientUnits="userSpaceOnUse" cy="8.3027" cx="11.306" gradientTransform="matrix(-.76618 1.7164 -.70099 -.31291 23.788 -6.2939)" r="8.7035">
   <stop id="stop3624" style="stop-color:#3c3c3c" offset="0"/>
   <stop id="stop3626" style="stop-color:#1e1e1e" offset="1"/>
  </radialGradient>
 </defs>
 <g id="layer1" transform="translate(0,-2)">
  <path id="path3320" style="fill:url(#radialGradient3628);fill-rule:evenodd" d="m9.5229 9.0993-9.5229 11.55c0.5884 3.207 3.9227 3.351 3.9227 3.351l11.484-9.921-5.8841-4.9797z"/>
  <path id="path3322" style="opacity:0.24;fill:url(#linearGradient4429);fill-rule:evenodd" d="m11.429 11.864c-11.328 12.598-9.8231 10.852-9.8231 10.852s-1.1298-1.0201-1.1788-1.7383l9.1797-11.119s0.84485 1.1232 1.8227 2.0054z"/>
  <path id="path2383" style="fill:url(#radialGradient4432)" d="m21.999 7.8524a5.8817 5.743 0.69425 1 1 -11.761 -0.2135 5.8817 5.743 0.69425 1 1 11.761 0.2135z"/>
  <path id="path3681" style="opacity:.19070;fill:url(#radialGradient4596)" d="m21.748 7.835a5.7765 5.7302 0 1 1 -11.551 -0.2097 5.7765 5.7302 0 1 1 11.551 0.2097z"/>
  <path id="path3163" style="fill:url(#linearGradient4609);fill-rule:evenodd" d="m12.356 3.2037s2.3282 3.0818 8.6816 7.7242c0.2596 0.18968-0.49176 0.9824-0.74935 0.75963 0 0-3.9338-1.8825-8.7412-7.5596-0.23817-0.28125 0.1788-0.49383 0.80895-0.92424z"/>
  <path id="path3177" style="opacity:.67442;fill:url(#linearGradient4606);fill-rule:evenodd" d="m12.356 3.2037s2.3282 3.0818 8.6816 7.7242c0.2596 0.18968-0.49176 0.9824-0.74935 0.75963 0 0-3.9338-1.8825-8.7412-7.5596-0.23817-0.28125 0.1788-0.49383 0.80895-0.92424z"/>
  <path id="path2677" style="opacity:.47907;fill:url(#radialGradient4602)" d="m21.999 7.8524a5.8817 5.743 0.69425 1 1 -11.761 -0.2135 5.8817 5.743 0.69425 1 1 11.761 0.2135z"/>
  <path id="path3302" style="fill:url(#linearGradient4339);fill-rule:evenodd" d="m15.187 14.202c0.46823-0.05715 1.5803-0.71436 1.5803-0.71436-1.6096-0.80008-6.4967-5.6006-6.4967-5.6006s-0.84867 1.0858-0.76088 1.4001c0 0 2.8094 3.2575 5.6773 4.9148z"/>
  <path id="path3316" style="opacity:.52558;fill:url(#linearGradient4336);fill-rule:evenodd" d="m15.108 14.162c0.46608-0.05735 1.573-0.71684 1.573-0.71684-1.6022-0.80286-6.4669-5.62-6.4669-5.62s-0.84478 1.0896-0.75738 1.405c0 0 2.7965 3.2688 5.6513 4.9318z"/>
 </g>
</svg>
